X:18567
T:Wedding Jig
M:6/8
L:1/8
S:Altan, Red Crow
R:jig
K:G
G2B, G,A,B,|DEF G2F|E2E G2A|BGE E2F|G2B, G,A,B,|DEF G2E|D2D F2d|
AFD DEF:|G2G GFG|A2A AGA|B2B BAB|def g2e|d2d dcB|c2c cAG|
FGA BAG|1FGE D2D|2FGE DFA:||d^ce d^ce|dAF G2F|E2E G2A|
BGE E2A|d^ce d^ce|dAF G2E|D2D F2d|1AFD DFA:|2AFD D2D||


